icons/icn_areaInfluenc_white.svg

<svg width="24" height="24" xmlns="http://www.w3.org/2000/svg" viewBox="0 0 24 24" fill="none"> <g fill="#fff">
<path d="M11.936572074890137,5.327880859375C15.615283012390137,5.327880859375,18.578418731689453,8.299072265625,18.578418731689453,11.97802734375C18.578418731689453,15.656982421875,15.615283012390137,18.6226806640625,11.936572074890137,18.6226806640625C8.257616996765137,18.6226806640625,5.283495903015137,15.656982421875,5.283495903015137,11.97802734375C5.283495903015137,8.299072265625,8.257616996765137,5.327880859375,11.936572074890137,5.327880859375ZM11.936572074890137,4.0291748046875C7.554491996765137,4.0291748046875,3.985156297683716,7.596923828125,3.985156297683716,11.97802734375C3.985156297683716,16.359619140625,7.554491996765137,19.92138671875,11.936572074890137,19.92138671875C16.317676544189453,19.92138671875,19.879444122314453,16.359619140625,19.879444122314453,11.97802734375C19.879444122314453,7.596923828125,16.317676544189453,4.0291748046875,11.936572074890137,4.0291748046875Z"/>
</g>
</svg>

<svg width="24" height="24" xmlns="http://www.w3.org/2000/svg" viewBox="0 0 24 24" fill="none">
  <g fill="#fff">
    <path d="M11.9366 5.3279c3.6787 0 6.6418 2.9712 6.6418 6.6501 0 3.679-2.9631 6.6447-6.6418 6.6447-3.679 0-6.6531-2.9657-6.6531-6.6447 0-3.679 2.9741-6.6501 6.653-6.6501Zm0-1.2987c-4.3821 0-7.9514 3.5677-7.9514 7.9488 0 4.3816 3.5693 7.9434 7.9514 7.9434 4.381 0 7.9428-3.5618 7.9428-7.9434 0-4.381-3.5617-7.9488-7.9428-7.9488Z"/>
  </g>
</svg>
